X:223
T:Sham Peter. JC.228
T:Champetre, aka. JC.228
R:March
S:John Clare,Poet,Helpstone (1793-1864)
N:MR.. Bars 2.6.7.9.11.13.14..a qu follows a dotted qu in the MS,semi-qu
N:given here.
O:England
A:Northamptonshire
Z:vmp.P. Headford
M:2/4
L:1/8
Q:1/4=100
K:G
B/c/|\
dgdg|d>cBd|cBcd|” qu in MS”B3(B/c/)|!
dgdg|d>cBd|c>BcA|” crot”G3:|!
|:z|A>BcB|AdAB|A>BcB|AG AB|!
B>cdc|B>cdc|\
(B/d/)(B/G/) (A/c/)(A/F/)|” crot”G3:|

